X:215
T:Polska efter modern
T:(SvL Halland 215)
R:Polska
S:Johannes Erlandson
O:Gunnarp, Halland
B:Svenska Låtar Halland
M:3/4
L:1/8
K:D
A|A2 {/e}d>(c d>)e|f2 (f>g) (a2|f)z {/g}(f>e) d>c|B2 (c>d) (e2|
A2) ({/e}.d>.c) e>d|B2 A2 z:||:A|A2 G2 B>A|G2 (.F>.G) A2-|
A2 A>G BA|AG {/A}(3GFG A2-|A2 (.d>.e) f>g|e>(c d2) z:|

